X:1005
T: Farewell to the Heather
T: Sl\'an leis an bhFraoch
S: B.Breathnach:"Ceol Rince na hEireann" IV/109
Z: B.Black
L: 1/8
M: 4/4
R: reel
K: A
B,|A,G,A,C EA,CE|ACEA cEAc|eaga fedc|eFBA GEDB,|
A,G,A,C EA,CE|ACEA cEAc|eaga fedc|BEGB A3 :|
e|fece aece|Aece fece|eaga fedc|dFBA GEDB,|
A,CEA ceae|DFAd fage|begb aecA|BEGB A3 :|
